images/portal/4740.svg

<?xml version="1.0" standalone="no"?>
<!DOCTYPE svg PUBLIC "-//W3C//DTD SVG 1.1//EN" "http://www.w3.org/Graphics/SVG/1.1/DTD/svg11.dtd">
<svg xmlns:xlink="http://www.w3.org/1999/xlink" version="1.1" class="highcharts-root" style="font-family:arial;font-size:12px;" xmlns="http://www.w3.org/2000/svg" viewBox="0 0 485 415">
  <desc>
    Created with Highstock 5.0.14
  </desc>
  <defs>
    <clipPath id="highcharts-06g646b-6">
      <rect x="0" y="0" width="428" height="229" fill="none"/>
    </clipPath>
    <clipPath id="highcharts-06g646b-7">
      <rect x="0" y="0" width="428" height="229" fill="none"/>
    </clipPath>
  </defs>
  <rect fill="#fbfbfb" class="highcharts-background" x="0" y="0" width="485" height="415" rx="0" ry="0"/>
  <rect fill="none" class="highcharts-plot-background" x="47" y="120" width="428" height="229"/>
  <g class="highcharts-pane-group"/>
  <g class="highcharts-grid highcharts-xaxis-grid ">
    <path fill="none" class="highcharts-grid-line" d="M 50.5 120 L 50.5 349" opacity="1"/>
    <path fill="none" class="highcharts-grid-line" d="M 155.5 120 L 155.5 349" opacity="1"/>
    <path fill="none" class="highcharts-grid-line" d="M 260.5 120 L 260.5 349" opacity="1"/>
    <path fill="none" class="highcharts-grid-line" d="M 365.5 120 L 365.5 349" opacity="1"/>
    <path fill="none" class="highcharts-grid-line" d="M 470.5 120 L 470.5 349" opacity="1"/>
  </g>
  <g class="highcharts-grid highcharts-yaxis-grid ">
    <path fill="none" stroke="#e6e6e6" stroke-width="1" class="highcharts-grid-line" d="M 47 349.5 L 475 349.5" opacity="1"/>
    <path fill="none" stroke="#e6e6e6" stroke-width="1" class="highcharts-grid-line" d="M 47 303.5 L 475 303.5" opacity="1"/>
    <path fill="none" stroke="#e6e6e6" stroke-width="1" class="highcharts-grid-line" d="M 47 257.5 L 475 257.5" opacity="1"/>
    <path fill="none" stroke="#e6e6e6" stroke-width="1" class="highcharts-grid-line" d="M 47 212.5 L 475 212.5" opacity="1"/>
    <path fill="none" stroke="#e6e6e6" stroke-width="1" class="highcharts-grid-line" d="M 47 166.5 L 475 166.5" opacity="1"/>
    <path fill="none" stroke="#e6e6e6" stroke-width="1" class="highcharts-grid-line" d="M 47 119.5 L 475 119.5" opacity="1"/>
  </g>
  <rect fill="none" class="highcharts-plot-border" x="47" y="120" width="428" height="229"/>
  <g class="highcharts-axis highcharts-xaxis ">
    <path fill="none" class="highcharts-axis-line" stroke="#ccd6eb" stroke-width="1" d="M 47 349.5 L 475 349.5"/>
  </g>
  <g class="highcharts-axis highcharts-yaxis ">
    <path fill="none" class="highcharts-axis-line" d="M 47 120 L 47 349"/>
  </g>
  <g class="highcharts-series-group">
    <g class="highcharts-series highcharts-series-0 highcharts-line-series highcharts-color-undefined " transform="translate(47,120) scale(1 1)" clip-path="url(#highcharts-06g646b-7)">
      <path fill="none" d="M 4.1960784313688 130.988 L 109.09803921568 141.06400000000002 L 214 131.904 L 318.90196078432 125.49199999999999 L 423.80392156863 130.988" class="highcharts-graph" stroke="#B00000" stroke-width="2" stroke-linejoin="round" stroke-linecap="round"/>
    </g>
    <g class="highcharts-markers highcharts-series-0 highcharts-line-series highcharts-color-undefined " transform="translate(47,120) scale(1 1)" clip-path="none"/>
    <g class="highcharts-series highcharts-series-1 highcharts-line-series highcharts-color-undefined " transform="translate(47,120) scale(1 1)" clip-path="url(#highcharts-06g646b-7)">
      <path fill="none" d="M 4.1960784313688 113.584 L 109.09803921568 123.66 L 214 99.844 L 318.90196078432 101.67599999999999 L 423.80392156863 110.836" class="highcharts-graph" stroke="#71A3B5" stroke-width="2" stroke-linejoin="round" stroke-linecap="round"/>
    </g>
    <g class="highcharts-markers highcharts-series-1 highcharts-line-series highcharts-color-undefined " transform="translate(47,120) scale(1 1)" clip-path="none">
      <path fill="#71A3B5" d="M 8 114 A 4 4 0 1 1 7.999998000000167 113.99600000066667 Z" class="highcharts-point"/>
      <path fill="#71A3B5" d="M 113 124 A 4 4 0 1 1 112.99999800000016 123.99600000066667 Z" class="highcharts-point"/>
      <path fill="#71A3B5" d="M 218 100 A 4 4 0 1 1 217.99999800000018 99.99600000066667 Z" class="highcharts-point"/>
      <path fill="#71A3B5" d="M 322 102 A 4 4 0 1 1 321.9999980000002 101.99600000066667 Z" class="highcharts-point"/>
      <path fill="#71A3B5" d="M 427 111 A 4 4 0 1 1 426.9999980000002 110.99600000066667 Z" class="highcharts-point"/>
    </g>
    <g class="highcharts-series highcharts-series-2 highcharts-line-series highcharts-color-undefined " transform="translate(47,120) scale(1 1)" clip-path="url(#highcharts-06g646b-7)">
      <path fill="none" d="M 4.1960784313688 157.55200000000002 L 109.09803921568 112.668 L 214 142.89600000000002 L 318.90196078432 119.08 L 423.80392156863 101.67599999999999" class="highcharts-graph" stroke="#672773" stroke-width="2" stroke-linejoin="round" stroke-linecap="round"/>
    </g>
    <g class="highcharts-markers highcharts-series-2 highcharts-line-series highcharts-color-undefined " transform="translate(47,120) scale(1 1)" clip-path="none"/>
    <g class="highcharts-series highcharts-series-3 highcharts-line-series highcharts-color-undefined " transform="translate(47,120) scale(1 1)" clip-path="url(#highcharts-06g646b-7)">
      <path fill="none" d="M 4.1960784313688 138.31599999999997 L 109.09803921568 135.568 L 214 91.6 L 318.90196078432 145.644 L 423.80392156863 134.652" class="highcharts-graph" stroke="#007A2F" stroke-width="2" stroke-linejoin="round" stroke-linecap="round"/>
    </g>
    <g class="highcharts-markers highcharts-series-3 highcharts-line-series highcharts-color-undefined " transform="translate(47,120) scale(1 1)" clip-path="none"/>
    <g class="highcharts-series highcharts-series-4 highcharts-line-series highcharts-color-undefined " transform="translate(47,120) scale(1 1)" clip-path="url(#highcharts-06g646b-7)">
      <path fill="none" d="M 4.1960784313688 163.964 L 109.09803921568 164.88 L 214 112.668 L 318.90196078432 182.284 L 423.80392156863 143.812" class="highcharts-graph" stroke="#73BA7C" stroke-width="2" stroke-linejoin="round" stroke-linecap="round"/>
    </g>
    <g class="highcharts-markers highcharts-series-4 highcharts-line-series highcharts-color-undefined " transform="translate(47,120) scale(1 1)" clip-path="none"/>
    <g class="highcharts-series highcharts-series-5 highcharts-line-series highcharts-color-undefined " transform="translate(47,120) scale(1 1)" clip-path="url(#highcharts-06g646b-7)">
      <path fill="none" d="M 4.1960784313688 137.4 L 109.09803921568 133.736 L 214 63.20399999999998 L 318.90196078432 47.63199999999998 L 423.80392156863 86.10400000000001" class="highcharts-graph" stroke="#FABD24" stroke-width="2" stroke-linejoin="round" stroke-linecap="round"/>
    </g>
    <g class="highcharts-markers highcharts-series-5 highcharts-line-series highcharts-color-undefined " transform="translate(47,120) scale(1 1)" clip-path="none"/>
    <g class="highcharts-series highcharts-series-6 highcharts-line-series highcharts-color-undefined " transform="translate(47,120) scale(1 1)" clip-path="url(#highcharts-06g646b-7)">
      <path fill="none" d="M 4.1960784313688 72.36399999999998 L 109.09803921568 132.82 L 214 125.49199999999999 L 318.90196078432 100.75999999999999 L 423.80392156863 126.408" class="highcharts-graph" stroke="#D3E2E5" stroke-width="2" stroke-linejoin="round" stroke-linecap="round"/>
    </g>
    <g class="highcharts-markers highcharts-series-6 highcharts-line-series highcharts-color-undefined " transform="translate(47,120) scale(1 1)" clip-path="none"/>
  </g>
  <text x="10" text-anchor="start" class="highcharts-title" style="color:#000000;font-size:14px;font-weight:bold;fill:#000000;" y="21">
    <tspan>Lehrabbruchquote nach Staatsangehörigkeit seit 2011</tspan>
  </text>
  <g class="highcharts-legend" transform="translate(30,45)">
    <rect fill="none" class="highcharts-legend-box" rx="0" ry="0" x="0" y="0" width="357" height="49" visibility="visible"/>
    <g>
      <g>
        <g class="highcharts-legend-item highcharts-line-series highcharts-color-undefined highcharts-series-0" transform="translate(8,3)">
          <path fill="none" d="M 0 11 L 16 11" class="highcharts-graph" stroke="#B00000" stroke-width="2"/>
          <text x="21" style="color:#333333;font-size:12px;font-weight:normal;cursor:pointer;fill:#333333;" text-anchor="start" y="15">
            <tspan>Schweiz</tspan>
          </text>
        </g>
        <g class="highcharts-legend-item highcharts-line-series highcharts-color-undefined highcharts-series-1" transform="translate(93.65625,3)">
          <path fill="none" d="M 0 11 L 16 11" class="highcharts-graph" stroke="#71A3B5" stroke-width="2"/>
          <path fill="#71A3B5" d="M 12 11 A 4 4 0 1 1 11.999998000000167 10.996000000666664 Z" class="highcharts-point"/>
          <text x="21" y="15" style="color:#333333;font-size:12px;font-weight:normal;cursor:pointer;fill:#333333;" text-anchor="start">
            <tspan>Ausland</tspan>
          </text>
        </g>
        <g class="highcharts-legend-item highcharts-line-series highcharts-color-undefined highcharts-series-2" transform="translate(178,3)">
          <path fill="none" d="M 0 11 L 16 11" class="highcharts-graph" stroke="#672773" stroke-width="2"/>
          <text x="21" y="15" style="color:#333333;font-size:12px;font-weight:normal;cursor:pointer;fill:#333333;" text-anchor="start">
            <tspan>Deutschland</tspan>
          </text>
        </g>
        <g class="highcharts-legend-item highcharts-line-series highcharts-color-undefined highcharts-series-3" transform="translate(285.671875,3)">
          <path fill="none" d="M 0 11 L 16 11" class="highcharts-graph" stroke="#007A2F" stroke-width="2"/>
          <text x="21" y="15" style="color:#333333;font-size:12px;font-weight:normal;cursor:pointer;fill:#333333;" text-anchor="start">
            <tspan>Italien</tspan>
          </text>
        </g>
        <g class="highcharts-legend-item highcharts-line-series highcharts-color-undefined highcharts-series-4" transform="translate(8,22)">
          <path fill="none" d="M 0 11 L 16 11" class="highcharts-graph" stroke="#73BA7C" stroke-width="2"/>
          <text x="21" y="15" style="color:#333333;font-size:12px;font-weight:normal;cursor:pointer;fill:#333333;" text-anchor="start">
            <tspan>Spanien</tspan>
          </text>
        </g>
        <g class="highcharts-legend-item highcharts-line-series highcharts-color-undefined highcharts-series-5" transform="translate(93.015625,22)">
          <path fill="none" d="M 0 11 L 16 11" class="highcharts-graph" stroke="#FABD24" stroke-width="2"/>
          <text x="21" y="15" style="color:#333333;font-size:12px;font-weight:normal;cursor:pointer;fill:#333333;" text-anchor="start">
            <tspan>Türkei</tspan>
          </text>
        </g>
        <g class="highcharts-legend-item highcharts-line-series highcharts-color-undefined highcharts-series-6" transform="translate(167.328125,22)">
          <path fill="none" d="M 0 11 L 16 11" class="highcharts-graph" stroke="#D3E2E5" stroke-width="2"/>
          <text x="21" y="15" style="color:#333333;font-size:12px;font-weight:normal;cursor:pointer;fill:#333333;" text-anchor="start">
            <tspan>Ehem. Jugoslawien ohne SLO</tspan>
          </text>
        </g>
      </g>
    </g>
  </g>
  <g class="highcharts-axis-labels highcharts-xaxis-labels ">
    <text x="51.196078431368804" style="color:#000000;cursor:default;font-size:11px;fill:#000000;" text-anchor="middle" transform="translate(0,0)" y="368" opacity="1">
      <tspan>2011</tspan>
    </text>
    <text x="156.0980392156844" style="color:#000000;cursor:default;font-size:11px;fill:#000000;" text-anchor="middle" transform="translate(0,0)" y="368" opacity="1">
      <tspan>2012</tspan>
    </text>
    <text x="261" style="color:#000000;cursor:default;font-size:11px;fill:#000000;" text-anchor="middle" transform="translate(0,0)" y="368" opacity="1">
      <tspan>2013</tspan>
    </text>
    <text x="365.9019607843156" style="color:#000000;cursor:default;font-size:11px;fill:#000000;" text-anchor="middle" transform="translate(0,0)" y="368" opacity="1">
      <tspan>2014</tspan>
    </text>
    <text x="462.78125" style="color:#000000;cursor:default;font-size:11px;fill:#000000;" text-anchor="middle" transform="translate(0,0)" y="368" opacity="1">
      <tspan>2015</tspan>
    </text>
  </g>
  <g class="highcharts-axis-labels highcharts-yaxis-labels ">
    <text x="32" style="color:#000000;cursor:default;font-size:11px;fill:#000000;" text-anchor="end" transform="translate(0,0)" y="354" opacity="1">
      <tspan>0%</tspan>
    </text>
    <text x="32" style="color:#000000;cursor:default;font-size:11px;fill:#000000;" text-anchor="end" transform="translate(0,0)" y="308" opacity="1">
      <tspan>5%</tspan>
    </text>
    <text x="32" style="color:#000000;cursor:default;font-size:11px;fill:#000000;" text-anchor="end" transform="translate(0,0)" y="262" opacity="1">
      <tspan>10%</tspan>
    </text>
    <text x="32" style="color:#000000;cursor:default;font-size:11px;fill:#000000;" text-anchor="end" transform="translate(0,0)" y="216" opacity="1">
      <tspan>15%</tspan>
    </text>
    <text x="32" style="color:#000000;cursor:default;font-size:11px;fill:#000000;" text-anchor="end" transform="translate(0,0)" y="170" opacity="1">
      <tspan>20%</tspan>
    </text>
    <text x="32" style="color:#000000;cursor:default;font-size:11px;fill:#000000;" text-anchor="end" transform="translate(0,0)" y="125" opacity="1">
      <tspan>25%</tspan>
    </text>
  </g>
  <text x="10" class="highcharts-credits" text-anchor="start" style="cursor:default;color:#000000;font-size:10px;fill:#000000;" y="400">
    <tspan>Quelle: Erziehungsdepartement Basel-Stadt, Fachstelle Lehraufsicht</tspan>
  </text>
</svg>

<svg class="highcharts-root" xmlns="http://www.w3.org/2000/svg" viewBox="0 0 485 415" font-family="arial" font-size="12">
    <defs>
        <clipPath id="a">
            <path fill="none" d="M0 0h428v229H0z"/>
        </clipPath>
    </defs>
    <rect fill="#fbfbfb" class="highcharts-background" width="485" height="415" rx="0" ry="0"/>
    <path fill="none" class="highcharts-plot-background" d="M47 120h428v229H47z"/>
    <g class="highcharts-grid highcharts-xaxis-grid">
        <path fill="none" class="highcharts-grid-line" d="M50.5 120v229m105-229v229m105-229v229m105-229v229m105-229v229"/>
    </g>
    <g class="highcharts-grid highcharts-yaxis-grid">
        <path fill="none" stroke="#e6e6e6" class="highcharts-grid-line" d="M47 349.5h428m-428-46h428m-428-46h428m-428-45h428m-428-46h428m-428-47h428"/>
    </g>
    <path fill="none" class="highcharts-plot-border" d="M47 120h428v229H47z"/>
    <g class="highcharts-axis highcharts-xaxis">
        <path fill="none" class="highcharts-axis-line" stroke="#ccd6eb" d="M47 349.5h428"/>
    </g>
    <g class="highcharts-axis highcharts-yaxis">
        <path fill="none" class="highcharts-axis-line" d="M47 120v229"/>
    </g>
    <g class="highcharts-series-group">
        <g class="highcharts-series highcharts-series-0 highcharts-line-series highcharts-color-undefined" transform="translate(47 120)" clip-path="url(#a)">
            <path fill="none" d="M4.196 130.988l104.902 10.076L214 131.904l104.902-6.412 104.902 5.496" class="highcharts-graph" stroke="#B00000" stroke-width="2" stroke-linejoin="round" stroke-linecap="round"/>
        </g>
        <g class="highcharts-series highcharts-series-1 highcharts-line-series highcharts-color-undefined" transform="translate(47 120)" clip-path="url(#a)">
            <path fill="none" d="M4.196 113.584l104.902 10.076L214 99.844l104.902 1.832 104.902 9.16" class="highcharts-graph" stroke="#71A3B5" stroke-width="2" stroke-linejoin="round" stroke-linecap="round"/>
        </g>
        <g class="highcharts-markers highcharts-series-1 highcharts-line-series highcharts-color-undefined">
            <path fill="#71A3B5" d="M55 234a4 4 0 1 1 0-.004zm105 10a4 4 0 1 1 0-.004zm105-24a4 4 0 1 1 0-.004zm104 2a4 4 0 1 1 0-.004zm105 9a4 4 0 1 1 0-.004z" class="highcharts-point"/>
        </g>
        <g class="highcharts-series highcharts-series-2 highcharts-line-series highcharts-color-undefined" transform="translate(47 120)" clip-path="url(#a)">
            <path fill="none" d="M4.196 157.552l104.902-44.884L214 142.896l104.902-23.816 104.902-17.404" class="highcharts-graph" stroke="#672773" stroke-width="2" stroke-linejoin="round" stroke-linecap="round"/>
        </g>
        <g class="highcharts-series highcharts-series-3 highcharts-line-series highcharts-color-undefined" transform="translate(47 120)" clip-path="url(#a)">
            <path fill="none" d="M4.196 138.316l104.902-2.748L214 91.6l104.902 54.044 104.902-10.992" class="highcharts-graph" stroke="#007A2F" stroke-width="2" stroke-linejoin="round" stroke-linecap="round"/>
        </g>
        <g class="highcharts-series highcharts-series-4 highcharts-line-series highcharts-color-undefined" transform="translate(47 120)" clip-path="url(#a)">
            <path fill="none" d="M4.196 163.964l104.902.916L214 112.668l104.902 69.616 104.902-38.472" class="highcharts-graph" stroke="#73BA7C" stroke-width="2" stroke-linejoin="round" stroke-linecap="round"/>
        </g>
        <g class="highcharts-series highcharts-series-5 highcharts-line-series highcharts-color-undefined" transform="translate(47 120)" clip-path="url(#a)">
            <path fill="none" d="M4.196 137.4l104.902-3.664L214 63.204l104.902-15.572 104.902 38.472" class="highcharts-graph" stroke="#FABD24" stroke-width="2" stroke-linejoin="round" stroke-linecap="round"/>
        </g>
        <g class="highcharts-series highcharts-series-6 highcharts-line-series highcharts-color-undefined" transform="translate(47 120)" clip-path="url(#a)">
            <path fill="none" d="M4.196 72.364l104.902 60.456L214 125.492l104.902-24.732 104.902 25.648" class="highcharts-graph" stroke="#D3E2E5" stroke-width="2" stroke-linejoin="round" stroke-linecap="round"/>
        </g>
    </g>
    <text x="10" class="highcharts-title" y="21" color="#000" font-size="14" font-weight="700">
        <tspan>Lehrabbruchquote nach Staatsangehörigkeit seit 2011</tspan>
    </text>
    <g class="highcharts-legend" transform="translate(30 45)">
        <rect fill="none" class="highcharts-legend-box" rx="0" ry="0" width="357" height="49"/>
        <g class="highcharts-legend-item highcharts-line-series highcharts-color-undefined highcharts-series-0">
            <path fill="none" d="M8 14h16" class="highcharts-graph" stroke="#B00000" stroke-width="2"/>
            <text x="21" y="15" color="#333" font-weight="400" cursor="pointer" fill="#333" transform="translate(8 3)">
                <tspan>Schweiz</tspan>
            </text>
        </g>
        <g class="highcharts-legend-item highcharts-line-series highcharts-color-undefined highcharts-series-1">
            <path fill="none" d="M93.656 14h16" class="highcharts-graph" stroke="#71A3B5" stroke-width="2"/>
            <path fill="#71A3B5" d="M105.656 14a4 4 0 1 1 0-.004z" class="highcharts-point"/>
            <text x="21" y="15" color="#333" font-weight="400" cursor="pointer" fill="#333" transform="translate(93.656 3)">
                <tspan>Ausland</tspan>
            </text>
        </g>
        <g class="highcharts-legend-item highcharts-line-series highcharts-color-undefined highcharts-series-2">
            <path fill="none" d="M178 14h16" class="highcharts-graph" stroke="#672773" stroke-width="2"/>
            <text x="21" y="15" color="#333" font-weight="400" cursor="pointer" fill="#333" transform="translate(178 3)">
                <tspan>Deutschland</tspan>
            </text>
        </g>
        <g class="highcharts-legend-item highcharts-line-series highcharts-color-undefined highcharts-series-3">
            <path fill="none" d="M285.672 14h16" class="highcharts-graph" stroke="#007A2F" stroke-width="2"/>
            <text x="21" y="15" color="#333" font-weight="400" cursor="pointer" fill="#333" transform="translate(285.672 3)">
                <tspan>Italien</tspan>
            </text>
        </g>
        <g class="highcharts-legend-item highcharts-line-series highcharts-color-undefined highcharts-series-4">
            <path fill="none" d="M8 33h16" class="highcharts-graph" stroke="#73BA7C" stroke-width="2"/>
            <text x="21" y="15" color="#333" font-weight="400" cursor="pointer" fill="#333" transform="translate(8 22)">
                <tspan>Spanien</tspan>
            </text>
        </g>
        <g class="highcharts-legend-item highcharts-line-series highcharts-color-undefined highcharts-series-5">
            <path fill="none" d="M93.016 33h16" class="highcharts-graph" stroke="#FABD24" stroke-width="2"/>
            <text x="21" y="15" color="#333" font-weight="400" cursor="pointer" fill="#333" transform="translate(93.016 22)">
                <tspan>Türkei</tspan>
            </text>
        </g>
        <g class="highcharts-legend-item highcharts-line-series highcharts-color-undefined highcharts-series-6">
            <path fill="none" d="M167.328 33h16" class="highcharts-graph" stroke="#D3E2E5" stroke-width="2"/>
            <text x="21" y="15" color="#333" font-weight="400" cursor="pointer" fill="#333" transform="translate(167.328 22)">
                <tspan>Ehem. Jugoslawien ohne SLO</tspan>
            </text>
        </g>
    </g>
    <g class="highcharts-axis-labels highcharts-xaxis-labels" text-anchor="middle" color="#000" cursor="default" font-size="11">
        <text x="51.196" y="368">
            <tspan>2011</tspan>
        </text>
        <text x="156.098" y="368">
            <tspan>2012</tspan>
        </text>
        <text x="261" y="368">
            <tspan>2013</tspan>
        </text>
        <text x="365.902" y="368">
            <tspan>2014</tspan>
        </text>
        <text x="462.781" y="368">
            <tspan>2015</tspan>
        </text>
    </g>
    <g class="highcharts-axis-labels highcharts-yaxis-labels" text-anchor="end" color="#000" cursor="default" font-size="11">
        <text x="32" y="354">
            <tspan>0%</tspan>
        </text>
        <text x="32" y="308">
            <tspan>5%</tspan>
        </text>
        <text x="32" y="262">
            <tspan>10%</tspan>
        </text>
        <text x="32" y="216">
            <tspan>15%</tspan>
        </text>
        <text x="32" y="170">
            <tspan>20%</tspan>
        </text>
        <text x="32" y="125">
            <tspan>25%</tspan>
        </text>
    </g>
    <text x="10" class="highcharts-credits" y="400" cursor="default" color="#000" font-size="10">
        <tspan>Quelle: Erziehungsdepartement Basel-Stadt, Fachstelle Lehraufsicht</tspan>
    </text>
</svg>
